X:1032
T:Three Heys in May
C:Colin Hume, 2020
L:1/4
M:3/2
R:Triple-time
%%MIDI program 68     Oboe
%%MIDI chordprog 49   String Ensemble 2
%%MIDI bassprog 43    Contrabass
%%MIDI gchord c2b
%%MIDI beat 100 95 80
S:Colin Hume's website,  colinhume.com  - chords can also be printed below the stave.
Q:1/2=102
%%MIDI chordname 7sus 0 5 7 10
K:C
P:A
|: "C"c2 G2 e2 | "Dm"d2 A2 dc | "G"Bc d2 cB | "Am"cd e2 de |\
"Dm"fe d2 "G"g2 | "Am"e2 ed c2 | "F"AG F2 "Dm"A2 |1 "Gsus"G4- "G"G2 :|2 "C"c6 |
P:B
"G"B2 d2 f2 | "C"f2 e2 g2 | "F"g2 f2 e2 | "G"e2 dc BG |\
"F"A2 c2 d2 | "C/E"d2 c2 d2 | "Dm"d2 c2 e2 | "G"e2 dc BG |
P:C
"F"A2 c4 | "G"BA Bc d2 | "Am"c2 e4 | "G7/B"dc de f2 |\
"C"g2 c2 g2 | "F"ag fe "G"d2 | [I:MIDI=gchord ccb] "C/E"g2 "F"fe "/A"dc | "G7sus"d2- "G7"dc "C"c2 |]

